16x16/mimetypes/application-x.allegorithmic.package+xml.svg

<svg xmlns="http://www.w3.org/2000/svg" width="16" height="16" version="1.1">
 <path style="fill:#f54b3e" d="M 2.8125,0 C 2.362375,0 2,0.3568 2,0.8 V 15.2 C 2,15.6432 2.362375,16 2.8125,16 h 11.375 C 14.637625,16 15,15.6432 15,15.2 V 5 L 11,4 10,0 Z"/>
 <path style="fill:#ff7d74" d="M 15,5 10,0 V 4.1666667 C 10,4.6283333 10.371667,5 10.833333,5 Z"/>
 <path style="fill:#f4f4f7" d="m 8.5,6.6111111 -3.5,1.75 V 9.9166667 L 10.133333,11.627778 8.5,12.444444 6.5555556,11.472222 V 10.888889 L 5,10.3705 V 12.25 L 8.5,14 12,12.25 V 10.694444 L 6.8666667,8.9833333 8.5,8.1666667 10.444444,9.1388889 V 9.7222222 L 12,10.240611 V 8.3611111 Z"/>
</svg>

<svg xmlns="http://www.w3.org/2000/svg" width="16" height="16"><path style="fill:#f54b3e" d="M2.813 0A.805.805 0 0 0 2 .8v14.4c0 .443.362.8.813.8h11.374c.45 0 .813-.357.813-.8V5l-4-1-1-4z"/><path style="fill:#ff7d74" d="m15 5-5-5v4.167c0 .461.372.833.833.833z"/><path style="fill:#f4f4f7" d="M8.5 6.611 5 8.361v1.556l5.133 1.71-1.633.817-1.944-.972v-.583L5 10.37v1.879L8.5 14l3.5-1.75v-1.556l-5.133-1.71L8.5 8.166l1.944.972v.583l1.556.519V8.36z"/></svg>
